X:38
T:Wilks’ Release. HSJJ.038
M:2/4
L:1/16
Q:1/4=100
S:HSJ Jackson,Wyresdale,Lancs.1823
R:.Country-dance
O:England
A:Lancashire
H:1823
Z:vmp.Chris Partington.
K:D
A|d3fe3g|f2a2 agfe|fafd egec|d2A2 F2D2|!
d3fe3g|f2a2 agfe|fafe egec|d4d2:|!
a2|a2g2 fgab|a2d’2a2f2|g3f efga|g2b2g2e2|!
f4-fdef|g4-gefg|a2ba g2f2|edcB ” DC”ABcA|]

